src/Static/Positions/ks-position-58.svg

<?xml version="1.0" encoding="UTF-8"?>
<svg width="213px" height="177px" viewBox="0 0 213 177" version="1.1" xmlns="http://www.w3.org/2000/svg" xmlns:xlink="http://www.w3.org/1999/xlink">
    <title>sex-etsy-58</title>
    <defs>
        <circle id="path-1" cx="39.7878374" cy="28.5028378" r="22.4997324"></circle>
        <filter x="-18.9%" y="-14.4%" width="137.8%" height="137.8%" filterUnits="objectBoundingBox" id="filter-2">
            <feMorphology radius="1.5" operator="dilate" in="SourceAlpha" result="shadowSpreadOuter1"></feMorphology>
            <feOffset dx="0" dy="2" in="shadowSpreadOuter1" result="shadowOffsetOuter1"></feOffset>
            <feGaussianBlur stdDeviation="2" in="shadowOffsetOuter1" result="shadowBlurOuter1"></feGaussianBlur>
            <feComposite in="shadowBlurOuter1" in2="SourceAlpha" operator="out" result="shadowBlurOuter1"></feComposite>
            <feColorMatrix values="0 0 0 0 0   0 0 0 0 0   0 0 0 0 0  0 0 0 0.5 0" type="matrix" in="shadowBlurOuter1"></feColorMatrix>
        </filter>
        <path d="M137.6814,118.0613 C137.6814,118.0613 137.6814,118.0613 137.6804,118.0613 C135.8236,118.0613 132.3319,117.5401 129.7149,114.0986 L121.9174,112.753 C120.6948,112.5431 119.4477,112.5148 118.2172,112.671 L101.0322,114.8525 C100.6132,115.0296 100.1897,115.1971 99.7732,115.3796 L110.1579,138.8943 L119.5092,137.7071 L146.5995,142.3824 L140.0177,117.827 C139.2526,117.9734 138.4724,118.0613 137.6814,118.0613 Z" id="path-3"></path>
        <filter x="-19.2%" y="-21.8%" width="138.5%" height="158.3%" filterUnits="objectBoundingBox" id="filter-4">
            <feMorphology radius="1.5" operator="dilate" in="SourceAlpha" result="shadowSpreadOuter1"></feMorphology>
            <feOffset dx="0" dy="2" in="shadowSpreadOuter1" result="shadowOffsetOuter1"></feOffset>
            <feGaussianBlur stdDeviation="2" in="shadowOffsetOuter1" result="shadowBlurOuter1"></feGaussianBlur>
            <feComposite in="shadowBlurOuter1" in2="SourceAlpha" operator="out" result="shadowBlurOuter1"></feComposite>
            <feColorMatrix values="0 0 0 0 0   0 0 0 0 0   0 0 0 0 0  0 0 0 0.5 0" type="matrix" in="shadowBlurOuter1"></feColorMatrix>
        </filter>
        <path d="M174.7602,147.2423 C175.4799,147.3663 176.1948,147.4259 176.9008,147.4259 C182.8715,147.4259 188.1547,143.1329 189.2046,137.0499 C190.3784,130.2462 185.8149,123.7804 179.0122,122.6056 L158.5747,119.0788 L165.7047,145.6795 L174.7602,147.2423 Z" id="path-5"></path>
        <filter x="-29.4%" y="-24.3%" width="157.0%" height="161.3%" filterUnits="objectBoundingBox" id="filter-6">
            <feMorphology radius="1.5" operator="dilate" in="SourceAlpha" result="shadowSpreadOuter1"></feMorphology>
            <feOffset dx="0" dy="2" in="shadowSpreadOuter1" result="shadowOffsetOuter1"></feOffset>
            <feGaussianBlur stdDeviation="2" in="shadowOffsetOuter1" result="shadowBlurOuter1"></feGaussianBlur>
            <feComposite in="shadowBlurOuter1" in2="SourceAlpha" operator="out" result="shadowBlurOuter1"></feComposite>
            <feColorMatrix values="0 0 0 0 0   0 0 0 0 0   0 0 0 0 0  0 0 0 0.5 0" type="matrix" in="shadowBlurOuter1"></feColorMatrix>
        </filter>
        <path d="M71.8328,113.0056 C71.5965,112.5046 71.3484,111.9416 71.1101,111.3679 L70.909,110.9158 C70.7312,110.511 70.5701,110.0749 70.4158,109.5803 C68.9199,105.4399 68.2178,101.4792 68.2881,97.9185 C66.5061,89.4408 65.3729,81.1545 64.274,74.3667 C63.5166,64.0361 55.8677,54.1627 47.1243,55.125 C38.3784,56.086 28.3767,64.7236 28.7272,80.2037 C28.8017,82.8159 28.9162,85.2979 29.0763,87.6841 L35.4762,75.2595 C37.2515,71.8147 40.7623,69.6745 44.6392,69.6745 C46.2672,69.6745 47.8961,70.0705 49.3502,70.8201 C54.398,73.4202 56.3902,79.6433 53.7906,84.6926 L35.9053,119.4148 C37.708,124.0502 39.9135,128.8905 42.6353,134.2524 C48.8675,144.5144 56.3899,146.0433 63.3303,144.8391 L84.6935,142.127 L71.8328,113.0056 Z" id="path-7"></path>
        <filter x="-15.2%" y="-7.2%" width="131.6%" height="118.9%" filterUnits="objectBoundingBox" id="filter-8">
            <feMorphology radius="1.5" operator="dilate" in="SourceAlpha" result="shadowSpreadOuter1"></feMorphology>
            <feOffset dx="0" dy="2" in="shadowSpreadOuter1" result="shadowOffsetOuter1"></feOffset>
            <feGaussianBlur stdDeviation="2" in="shadowOffsetOuter1" result="shadowBlurOuter1"></feGaussianBlur>
            <feComposite in="shadowBlurOuter1" in2="SourceAlpha" operator="out" result="shadowBlurOuter1"></feComposite>
            <feColorMatrix values="0 0 0 0 0   0 0 0 0 0   0 0 0 0 0  0 0 0 0.5 0" type="matrix" in="shadowBlurOuter1"></feColorMatrix>
        </filter>
        <path d="M48.2965,72.8645 C44.3687,70.8406 39.5445,72.3855 37.5211,76.3127 L0.8892,147.4285 C-1.1332,151.3567 0.4107,156.1809 4.3385,158.2038 C5.5103,158.8078 6.7613,159.0935 7.9947,159.0935 C10.8951,159.0935 13.6939,157.511 15.1139,154.7556 L51.7457,83.6399 C53.7681,79.7117 52.2242,74.8874 48.2965,72.8645 Z" id="path-9"></path>
        <filter x="-16.1%" y="-7.5%" width="132.3%" height="119.5%" filterUnits="objectBoundingBox" id="filter-10">
            <feMorphology radius="1.5" operator="dilate" in="SourceAlpha" result="shadowSpreadOuter1"></feMorphology>
            <feOffset dx="0" dy="2" in="shadowSpreadOuter1" result="shadowOffsetOuter1"></feOffset>
            <feGaussianBlur stdDeviation="2" in="shadowOffsetOuter1" result="shadowBlurOuter1"></feGaussianBlur>
            <feComposite in="shadowBlurOuter1" in2="SourceAlpha" operator="out" result="shadowBlurOuter1"></feComposite>
            <feColorMatrix values="0 0 0 0 0   0 0 0 0 0   0 0 0 0 0  0 0 0 0.5 0" type="matrix" in="shadowBlurOuter1"></feColorMatrix>
        </filter>
        <path d="M140.9988,67.5767 C137.9723,70.0044 134.6335,71.8594 130.8261,72.256 C129.915,72.3509 129.0615,72.3805 128.2342,72.3826 C121.1182,77.3059 112.7965,84.2332 86.7488,83.9855 C69.1863,83.8184 68.617,97.8779 72.5979,108.8487 C72.7141,109.2307 72.8469,109.6106 73.0125,109.9851 L73.2337,110.4861 C73.4583,111.0271 73.6926,111.5585 73.9363,112.0766 L88.7508,145.6213 L45.8142,150.8933 C40.3328,151.5661 36.4343,156.5554 37.1072,162.0373 C37.7302,167.1052 42.0408,170.8196 47.0203,170.8196 C47.4265,170.8196 47.8377,170.7947 48.2517,170.7439 L104.5603,163.8303 C107.7019,163.4446 110.4754,161.5945 112.0379,158.842 C113.6004,156.0901 113.7683,152.76 112.489,149.865 L96.7468,114.2214 C104.447,110.6496 114.9475,106.8971 128.865,104.8691 C129.9143,114.1546 134.7511,116.4305 139.4199,115.597 L132.0066,87.9397 C131.3982,85.6692 131.7097,83.2971 132.8855,81.2615 C134.0603,79.2258 135.9578,77.7693 138.2283,77.1609 C138.9763,76.9607 139.7449,76.8591 140.5125,76.8591 C144.4851,76.8591 147.9773,79.5417 149.0066,83.3826 L151.285,91.8827 C152.7205,89.6498 155.0025,87.2833 158.9739,84.9531 C159.6578,75.5765 153.3263,67.0058 140.9988,67.5767 Z" id="path-11"></path>
        <filter x="-7.0%" y="-6.3%" width="113.9%" height="116.5%" filterUnits="objectBoundingBox" id="filter-12">
            <feMorphology radius="1.5" operator="dilate" in="SourceAlpha" result="shadowSpreadOuter1"></feMorphology>
            <feOffset dx="0" dy="2" in="shadowSpreadOuter1" result="shadowOffsetOuter1"></feOffset>
            <feGaussianBlur stdDeviation="2" in="shadowOffsetOuter1" result="shadowBlurOuter1"></feGaussianBlur>
            <feComposite in="shadowBlurOuter1" in2="SourceAlpha" operator="out" result="shadowBlurOuter1"></feComposite>
            <feColorMatrix values="0 0 0 0 0   0 0 0 0 0   0 0 0 0 0  0 0 0 0.5 0" type="matrix" in="shadowBlurOuter1"></feColorMatrix>
        </filter>
        <path d="M146.7849,83.9778 C145.8562,80.511 142.2947,78.4519 138.824,79.3826 C135.3562,80.3118 133.2986,83.8762 134.2283,87.344 L153.9334,160.8596 C154.7117,163.7634 157.3377,165.678 160.2078,165.678 C160.7644,165.678 161.3308,165.6062 161.8943,165.4548 C165.3621,164.5256 167.4197,160.9612 166.49,157.4934 L146.7849,83.9778 Z" id="path-13"></path>
        <filter x="-26.0%" y="-7.5%" width="152.0%" height="119.6%" filterUnits="objectBoundingBox" id="filter-14">
            <feMorphology radius="1.5" operator="dilate" in="SourceAlpha" result="shadowSpreadOuter1"></feMorphology>
            <feOffset dx="0" dy="2" in="shadowSpreadOuter1" result="shadowOffsetOuter1"></feOffset>
            <feGaussianBlur stdDeviation="2" in="shadowOffsetOuter1" result="shadowBlurOuter1"></feGaussianBlur>
            <feComposite in="shadowBlurOuter1" in2="SourceAlpha" operator="out" result="shadowBlurOuter1"></feComposite>
            <feColorMatrix values="0 0 0 0 0   0 0 0 0 0   0 0 0 0 0  0 0 0 0.5 0" type="matrix" in="shadowBlurOuter1"></feColorMatrix>
        </filter>
        <path d="M130.5885,69.9684 C142.2983,68.7492 150.0008,50.873 157.9411,50.5682 C158.6695,49.3647 159.4957,48.2015 160.4598,47.111 C161.2659,46.1993 162.1423,45.3904 163.0488,44.6324 C156.2362,40.9954 146.5194,39.2576 135.7796,52.5492 C125.2391,65.5943 119.2024,63.97 115.871,60.8819 C112.5396,57.7937 115.4051,71.5494 130.5885,69.9684 Z" id="path-15"></path>
        <filter x="-17.6%" y="-23.2%" width="137.5%" height="160.6%" filterUnits="objectBoundingBox" id="filter-16">
            <feMorphology radius="1.5" operator="dilate" in="SourceAlpha" result="shadowSpreadOuter1"></feMorphology>
            <feOffset dx="0" dy="2" in="shadowSpreadOuter1" result="shadowOffsetOuter1"></feOffset>
            <feGaussianBlur stdDeviation="2" in="shadowOffsetOuter1" result="shadowBlurOuter1"></feGaussianBlur>
            <feComposite in="shadowBlurOuter1" in2="SourceAlpha" operator="out" result="shadowBlurOuter1"></feComposite>
            <feColorMatrix values="0 0 0 0 0   0 0 0 0 0   0 0 0 0 0  0 0 0 0.5 0" type="matrix" in="shadowBlurOuter1"></feColorMatrix>
        </filter>
        <circle id="path-17" cx="178.291074" cy="62.872718" r="21.5002968"></circle>
        <filter x="-19.8%" y="-15.1%" width="139.5%" height="139.5%" filterUnits="objectBoundingBox" id="filter-18">
            <feMorphology radius="1.5" operator="dilate" in="SourceAlpha" result="shadowSpreadOuter1"></feMorphology>
            <feOffset dx="0" dy="2" in="shadowSpreadOuter1" result="shadowOffsetOuter1"></feOffset>
            <feGaussianBlur stdDeviation="2" in="shadowOffsetOuter1" result="shadowBlurOuter1"></feGaussianBlur>
            <feComposite in="shadowBlurOuter1" in2="SourceAlpha" operator="out" result="shadowBlurOuter1"></feComposite>
            <feColorMatrix values="0 0 0 0 0   0 0 0 0 0   0 0 0 0 0  0 0 0 0.5 0" type="matrix" in="shadowBlurOuter1"></feColorMatrix>
        </filter>
    </defs>
    <g id="Page-2" stroke="none" stroke-width="1" fill="none" fill-rule="evenodd">
        <g id="sex-etsy-58" transform="translate(6.000000, -1.000000)" fill-rule="nonzero">
            <g id="Oval" transform="translate(39.787837, 28.502838) rotate(-72.962144) translate(-39.787837, -28.502838) ">
                <use fill="black" fill-opacity="1" filter="url(#filter-2)" xlink:href="#path-1"></use>
                <use stroke="#1A1A1D" stroke-width="3" fill="#4E4E50" xlink:href="#path-1"></use>
            </g>
            <g id="Path">
                <use fill="black" fill-opacity="1" filter="url(#filter-4)" xlink:href="#path-3"></use>
                <use stroke="#1A1A1D" stroke-width="3" fill="#4E4E50" xlink:href="#path-3"></use>
            </g>
            <g id="Path">
                <use fill="black" fill-opacity="1" filter="url(#filter-6)" xlink:href="#path-5"></use>
                <use stroke="#1A1A1D" stroke-width="3" fill="#4E4E50" xlink:href="#path-5"></use>
            </g>
            <g id="Path">
                <use fill="black" fill-opacity="1" filter="url(#filter-8)" xlink:href="#path-7"></use>
                <use stroke="#1A1A1D" stroke-width="3" fill="#4E4E50" xlink:href="#path-7"></use>
            </g>
            <g id="Path">
                <use fill="black" fill-opacity="1" filter="url(#filter-10)" xlink:href="#path-9"></use>
                <use stroke="#1A1A1D" stroke-width="3" fill="#4E4E50" xlink:href="#path-9"></use>
            </g>
            <g id="Path">
                <use fill="black" fill-opacity="1" filter="url(#filter-12)" xlink:href="#path-11"></use>
                <use stroke="#1A1A1D" stroke-width="3" fill="#6F2232" xlink:href="#path-11"></use>
            </g>
            <g id="Path">
                <use fill="black" fill-opacity="1" filter="url(#filter-14)" xlink:href="#path-13"></use>
                <use stroke="#1A1A1D" stroke-width="3" fill="#6F2232" xlink:href="#path-13"></use>
            </g>
            <g id="Path">
                <use fill="black" fill-opacity="1" filter="url(#filter-16)" xlink:href="#path-15"></use>
                <use stroke="#1A1A1D" stroke-width="3" fill="#6F2232" xlink:href="#path-15"></use>
            </g>
            <g id="Oval" transform="translate(178.291074, 62.872718) rotate(-74.662972) translate(-178.291074, -62.872718) ">
                <use fill="black" fill-opacity="1" filter="url(#filter-18)" xlink:href="#path-17"></use>
                <use stroke="#1A1A1D" stroke-width="3" fill="#6F2232" xlink:href="#path-17"></use>
            </g>
        </g>
    </g>
</svg>

<svg xmlns="http://www.w3.org/2000/svg" xmlns:xlink="http://www.w3.org/1999/xlink" width="213" height="177"><defs><filter id="i" width="132.3%" height="119.5%" x="-16.1%" y="-7.5%" filterUnits="objectBoundingBox"><feMorphology in="SourceAlpha" operator="dilate" radius="1.5" result="shadowSpreadOuter1"/><feOffset dy="2" in="shadowSpreadOuter1" result="shadowOffsetOuter1"/><feGaussianBlur in="shadowOffsetOuter1" result="shadowBlurOuter1" stdDeviation="2"/><feComposite in="shadowBlurOuter1" in2="SourceAlpha" operator="out" result="shadowBlurOuter1"/><feColorMatrix in="shadowBlurOuter1" values="0 0 0 0 0 0 0 0 0 0 0 0 0 0 0 0 0 0 0.5 0"/></filter><filter id="q" width="139.5%" height="139.5%" x="-19.8%" y="-15.1%" filterUnits="objectBoundingBox"><feMorphology in="SourceAlpha" operator="dilate" radius="1.5" result="shadowSpreadOuter1"/><feOffset dy="2" in="shadowSpreadOuter1" result="shadowOffsetOuter1"/><feGaussianBlur in="shadowOffsetOuter1" result="shadowBlurOuter1" stdDeviation="2"/><feComposite in="shadowBlurOuter1" in2="SourceAlpha" operator="out" result="shadowBlurOuter1"/><feColorMatrix in="shadowBlurOuter1" values="0 0 0 0 0 0 0 0 0 0 0 0 0 0 0 0 0 0 0.5 0"/></filter><filter id="o" width="137.5%" height="160.6%" x="-17.6%" y="-23.2%" filterUnits="objectBoundingBox"><feMorphology in="SourceAlpha" operator="dilate" radius="1.5" result="shadowSpreadOuter1"/><feOffset dy="2" in="shadowSpreadOuter1" result="shadowOffsetOuter1"/><feGaussianBlur in="shadowOffsetOuter1" result="shadowBlurOuter1" stdDeviation="2"/><feComposite in="shadowBlurOuter1" in2="SourceAlpha" operator="out" result="shadowBlurOuter1"/><feColorMatrix in="shadowBlurOuter1" values="0 0 0 0 0 0 0 0 0 0 0 0 0 0 0 0 0 0 0.5 0"/></filter><filter id="c" width="138.5%" height="158.3%" x="-19.2%" y="-21.8%" filterUnits="objectBoundingBox"><feMorphology in="SourceAlpha" operator="dilate" radius="1.5" result="shadowSpreadOuter1"/><feOffset dy="2" in="shadowSpreadOuter1" result="shadowOffsetOuter1"/><feGaussianBlur in="shadowOffsetOuter1" result="shadowBlurOuter1" stdDeviation="2"/><feComposite in="shadowBlurOuter1" in2="SourceAlpha" operator="out" result="shadowBlurOuter1"/><feColorMatrix in="shadowBlurOuter1" values="0 0 0 0 0 0 0 0 0 0 0 0 0 0 0 0 0 0 0.5 0"/></filter><filter id="m" width="152%" height="119.6%" x="-26%" y="-7.5%" filterUnits="objectBoundingBox"><feMorphology in="SourceAlpha" operator="dilate" radius="1.5" result="shadowSpreadOuter1"/><feOffset dy="2" in="shadowSpreadOuter1" result="shadowOffsetOuter1"/><feGaussianBlur in="shadowOffsetOuter1" result="shadowBlurOuter1" stdDeviation="2"/><feComposite in="shadowBlurOuter1" in2="SourceAlpha" operator="out" result="shadowBlurOuter1"/><feColorMatrix in="shadowBlurOuter1" values="0 0 0 0 0 0 0 0 0 0 0 0 0 0 0 0 0 0 0.5 0"/></filter><filter id="e" width="157%" height="161.3%" x="-29.4%" y="-24.3%" filterUnits="objectBoundingBox"><feMorphology in="SourceAlpha" operator="dilate" radius="1.5" result="shadowSpreadOuter1"/><feOffset dy="2" in="shadowSpreadOuter1" result="shadowOffsetOuter1"/><feGaussianBlur in="shadowOffsetOuter1" result="shadowBlurOuter1" stdDeviation="2"/><feComposite in="shadowBlurOuter1" in2="SourceAlpha" operator="out" result="shadowBlurOuter1"/><feColorMatrix in="shadowBlurOuter1" values="0 0 0 0 0 0 0 0 0 0 0 0 0 0 0 0 0 0 0.5 0"/></filter><filter id="k" width="113.9%" height="116.5%" x="-7%" y="-6.3%" filterUnits="objectBoundingBox"><feMorphology in="SourceAlpha" operator="dilate" radius="1.5" result="shadowSpreadOuter1"/><feOffset dy="2" in="shadowSpreadOuter1" result="shadowOffsetOuter1"/><feGaussianBlur in="shadowOffsetOuter1" result="shadowBlurOuter1" stdDeviation="2"/><feComposite in="shadowBlurOuter1" in2="SourceAlpha" operator="out" result="shadowBlurOuter1"/><feColorMatrix in="shadowBlurOuter1" values="0 0 0 0 0 0 0 0 0 0 0 0 0 0 0 0 0 0 0.5 0"/></filter><filter id="g" width="131.6%" height="118.9%" x="-15.2%" y="-7.2%" filterUnits="objectBoundingBox"><feMorphology in="SourceAlpha" operator="dilate" radius="1.5" result="shadowSpreadOuter1"/><feOffset dy="2" in="shadowSpreadOuter1" result="shadowOffsetOuter1"/><feGaussianBlur in="shadowOffsetOuter1" result="shadowBlurOuter1" stdDeviation="2"/><feComposite in="shadowBlurOuter1" in2="SourceAlpha" operator="out" result="shadowBlurOuter1"/><feColorMatrix in="shadowBlurOuter1" values="0 0 0 0 0 0 0 0 0 0 0 0 0 0 0 0 0 0 0.5 0"/></filter><filter id="a" width="137.8%" height="137.8%" x="-18.9%" y="-14.4%" filterUnits="objectBoundingBox"><feMorphology in="SourceAlpha" operator="dilate" radius="1.5" result="shadowSpreadOuter1"/><feOffset dy="2" in="shadowSpreadOuter1" result="shadowOffsetOuter1"/><feGaussianBlur in="shadowOffsetOuter1" result="shadowBlurOuter1" stdDeviation="2"/><feComposite in="shadowBlurOuter1" in2="SourceAlpha" operator="out" result="shadowBlurOuter1"/><feColorMatrix in="shadowBlurOuter1" values="0 0 0 0 0 0 0 0 0 0 0 0 0 0 0 0 0 0 0.5 0"/></filter><path id="j" d="M48.3 72.86a8 8 0 00-10.78 3.45L.9 147.43a8 8 0 0014.22 7.33l36.64-71.12a8 8 0 00-3.45-10.78z"/><path id="l" d="M141 67.58c-3.03 2.42-6.37 4.28-10.17 4.68-.92.1-1.77.12-2.6.12-7.11 4.93-15.43 11.85-41.48 11.6-17.56-.16-18.13 13.9-14.15 24.87.11.38.25.76.41 1.14l.22.5c.23.54.46 1.07.7 1.59l14.82 33.54-42.94 5.27a10 10 0 102.44 19.85l56.31-6.91a10 10 0 007.93-13.97l-15.74-35.64c7.7-3.57 18.2-7.32 32.12-9.35 1.04 9.28 5.88 11.56 10.55 10.73l-7.41-27.66c-.61-2.27-.3-4.64.88-6.68a8.74 8.74 0 017.62-4.4 8.8 8.8 0 018.5 6.52l2.28 8.5c1.43-2.23 3.71-4.6 7.68-6.93.69-9.37-5.64-17.94-17.97-17.37z"/><path id="h" d="M71.83 113c-.23-.5-.48-1.06-.72-1.63l-.2-.45c-.18-.4-.34-.85-.5-1.34-1.49-4.14-2.2-8.1-2.12-11.66-1.78-8.48-2.92-16.77-4.02-23.55-.75-10.33-8.4-20.2-17.15-19.25-8.74.97-18.74 9.6-18.4 25.08.08 2.62.2 5.1.36 7.48l6.4-12.42a10.27 10.27 0 0113.87-4.44 10.31 10.31 0 014.44 13.87l-17.88 34.72c1.8 4.64 4 9.48 6.73 14.84 6.23 10.26 13.75 11.8 20.69 10.59l21.36-2.71L71.83 113z"/><path id="n" d="M146.78 83.98a6.5 6.5 0 10-12.55 3.36l19.7 73.52a6.5 6.5 0 0012.56-3.37l-19.7-73.51z"/><path id="f" d="M174.76 147.24a12.5 12.5 0 004.25-24.64l-20.44-3.52 7.13 26.6 9.06 1.56z"/><path id="p" d="M130.59 69.97c11.7-1.22 19.41-19.1 27.35-19.4.73-1.2 1.56-2.37 2.52-3.46.8-.91 1.68-1.72 2.59-2.48-6.81-3.63-16.53-5.37-27.27 7.92-10.54 13.04-16.58 11.42-19.9 8.33-3.34-3.09-.47 10.67 14.7 9.09z"/><path id="d" d="M137.68 118.06a9.83 9.83 0 01-7.97-3.96l-7.8-1.35a12.54 12.54 0 00-3.7-.08l-17.18 2.18c-.42.18-.84.35-1.26.53l10.39 23.51 9.35-1.18 27.09 4.67-6.58-24.55c-.77.14-1.55.23-2.34.23z"/><circle id="r" cx="178.291" cy="62.873" r="21.5"/><circle id="b" cx="39.788" cy="28.503" r="22.5"/></defs><g fill="none" fill-rule="nonzero"><g transform="rotate(-72.962 42.112 23.946)"><use fill="#000" filter="url(#a)" xlink:href="#b"/><use fill="#4E4E50" stroke="#1A1A1D" stroke-width="3" xlink:href="#b"/></g><g transform="translate(6 -1)"><use fill="#000" filter="url(#c)" xlink:href="#d"/><use fill="#4E4E50" stroke="#1A1A1D" stroke-width="3" xlink:href="#d"/></g><g transform="translate(6 -1)"><use fill="#000" filter="url(#e)" xlink:href="#f"/><use fill="#4E4E50" stroke="#1A1A1D" stroke-width="3" xlink:href="#f"/></g><g transform="translate(6 -1)"><use fill="#000" filter="url(#g)" xlink:href="#h"/><use fill="#4E4E50" stroke="#1A1A1D" stroke-width="3" xlink:href="#h"/></g><g transform="translate(6 -1)"><use fill="#000" filter="url(#i)" xlink:href="#j"/><use fill="#4E4E50" stroke="#1A1A1D" stroke-width="3" xlink:href="#j"/></g><g transform="translate(6 -1)"><use fill="#000" filter="url(#k)" xlink:href="#l"/><use fill="#6F2232" stroke="#1A1A1D" stroke-width="3" xlink:href="#l"/></g><g transform="translate(6 -1)"><use fill="#000" filter="url(#m)" xlink:href="#n"/><use fill="#6F2232" stroke="#1A1A1D" stroke-width="3" xlink:href="#n"/></g><g transform="translate(6 -1)"><use fill="#000" filter="url(#o)" xlink:href="#p"/><use fill="#6F2232" stroke="#1A1A1D" stroke-width="3" xlink:href="#p"/></g><g transform="rotate(-74.663 180.635 58.44)"><use fill="#000" filter="url(#q)" xlink:href="#r"/><use fill="#6F2232" stroke="#1A1A1D" stroke-width="3" xlink:href="#r"/></g></g></svg>
